X: 10972
T: COTILLION No. 14. tune 4
C:
%R: march, reel
N: This is version 1, for ABC software that doesn't understand diminuendo annotations.
B: Elias Howe "The Musician's Companion" Part 1 1842 p.97 #2
S: http://imslp.org/wiki/The_Musician's_Companion_(Howe,_Elias)
Z: 2015 John Chambers <jc:trillian.mit.edu>
N: There's an extra 1/8-note going from the 2nd strain back to the 1st; not fixed.
M: 2/4
L: 1/16
K: F
% - - - - - - - - - - - - - - - - - - - - - - - - -
(cB) |\
A2F2 B2d2 | c4 A3F | B2B2 G2FE | F2GA BdcB |\
"dim..."A2F2 "dim..." B2d2 | .c2f2- f2(ed) | (dc)(cB) (BA)(AG) | G2 F4 H|]
(ef) |\
g2g2 (f2e2) | a2a2 g2f2 | b2b2 a2gf | gfed cdef |\
g2ag f2e2 | a2ba | g2f2 | b2ag f2ed | c2^c2 d2"^D.C."B2 |]
c2 |\
fefg _a2f2 | g2e2 c2de | fefg _a2f2  | g2c2 b2g2 |\
fefg _a2ag | f2f_e _d2dc | _B2c_d _e2e2 | _A4 "^D.C."z2 |]
% - - - - - - - - - - Dance description - - - - - - - - - -
%%begintext align
%% First 4 lead to right,
%% chassa out,
%% form lines across the hall,
%% all chassa to the right and left,
%% five steps each way,
%% swing partners to place,
%% ladies chain,
%% promenade 4,
%% sides the same.
%%endtext
%- - - - - - - - - - - - - - - - - - - - - - - - -
%%sep 1 1 300


